wp-content/themes/canvas/img/kaplanLogo.svg

<svg height="40" viewBox="0 0 120 40" width="120" xmlns="http://www.w3.org/2000/svg"><g fill="#222d40" fill-rule="evenodd" transform=""><path d="m3.89169083 11.9959839 10.03822397-10.24899595h5.1944886l-11.65836992 11.62994835 11.72518012 14.0590935h-5.2111912l-9.28660986-11.4302926-.80172171.7986231v10.6316695h-3.89169083v-25.68904185h3.89169083zm33.49526527 9.2008032h-11.0403762l-2.8728361 6.2392427h-4.1923365l12.7607373-27.30292596 12.3097689 27.30292596h-4.2591466zm-1.5867409-3.6437177-3.8248807-8.73493974-4.0086086 8.73493974zm12.3888276-.5490533v10.4320137h-3.8916909v-25.68904185h4.4094695c2.1602054 0 3.7914701.14974033 4.8938429.44922548 1.113508.29948514 2.0933803.86517082 2.9396463 1.69707401 1.4809656 1.44196551 2.2214373 3.26103319 2.2214373 5.4572576 0 2.35151296-.7905788 4.21494816-2.3717601 5.59036146-1.5811813 1.3754132-3.713517 2.0631096-6.3970712 2.0631096zm0-3.5938038h1.4531206c3.5743605 0 5.3615139-1.3698467 5.3615139-4.1095812 0-2.65099815-1.842828-3.97647734-5.5285393-3.97647734h-1.2860952zm15.1948535-11.66322435v22.04532415h7.5829513v3.6437177h-11.4746421v-25.68904185zm26.0069618 19.44979915h-11.0403762l-2.8728361 6.2392427h-4.1923365l12.7607373-27.30292596 12.3097689 27.30292596h-4.2591466zm-1.5867409-3.6437177-3.8248807-8.73493974-4.0086086 8.73493974zm8.4971367 9.8829604v-27.4360298l18.8070551 19.599541v-17.85255305h3.891691v27.25301205l-18.807055-19.54962708v17.98565688z"/><path d="m0 35.4922547c0-1.1222087.39847926-2.0860545 1.19544973-2.8915662.79363587-.8055118 1.74731845-1.2082616 2.86107635-1.2082616 1.10041948 0 2.04409839.4061921 2.83106505 1.2185886.79030127.8123965 1.18544597 1.7882903 1.18544597 2.9277108 0 1.1463052-.39681198 2.1187568-1.19044785 2.9173839-.79697047.8020694-1.75898944 1.2030981-2.88608575 1.2030981-.99704674 0-1.89237462-.3562787-2.68601049-1.0688469-.87366637-.7882999-1.31049301-1.8209918-1.31049301-3.0981067zm1.17544221.0154906c0 .8812436.28677168 1.6058491.86032365 2.1738382.57021737.567989 1.22879188.8519793 1.97574328.8519793.81030889 0 1.49389256-.2891537 2.05077151-.8674699.55687895-.5852008.83531425-1.2977582.83531425-2.1376936 0-.8502624-.27510075-1.5628198-.82531049-2.1376936-.54687513-.5783162-1.22378969-.8674699-2.03076398-.8674699-.80363968 0-1.48222151.2891537-2.03576586.8674699-.55354434.5714314-.83031236 1.2771042-.83031236 2.1170396zm14.41813829.6092943 2.3908995 3.3975903h-1.4255363l-2.2058299-3.263339h-.210079v3.263339h-1.1654384v-7.9724612h1.3655137c1.0203889 0 1.7573255.1979326 2.2108317.5938038.5001907.4406218.7502823 1.0223716.7502823 1.7452667 0 .5645468-.1567241 1.049912-.4701769 1.4561102-.3134529.4061982-.7269376.6660924-1.2404667.7796902zm-1.4505457-.9139415h.3701392c1.1037541 0 1.6556229-.4354517 1.6556229-1.3063683 0-.8158389-.5368633-1.2237522-1.6106059-1.2237522h-.4151562zm10.4816574-2.5301205v6.8416523h-1.1654385v-6.8416523h-1.775668v-1.1308089h4.7117726v1.1308089zm7.4155039 1.9879518h3.3312532v-3.1187607h1.1654384v7.9724612h-1.1654384v-3.7228915h-3.3312532v3.7228915h-1.1654385v-7.9724612h1.1654385zm9.4012509.8313253c0-1.1222087.3984793-2.0860545 1.1954497-2.8915662.7936359-.8055118 1.7473185-1.2082616 2.8610764-1.2082616 1.1004195 0 2.0440984.4061921 2.831065 1.2185886.7903013.8123965 1.185446 1.7882903 1.185446 2.9277108 0 1.1463052-.396812 2.1187568-1.1904479 2.9173839-.7969704.8020694-1.7589894 1.2030981-2.8860857 1.2030981-.9970468 0-1.8923746-.3562787-2.6860105-1.0688469-.8736664-.7882999-1.310493-1.8209918-1.310493-3.0981067zm1.1754422.0154906c0 .8812436.2867717 1.6058491.8603237 2.1738382.5702173.567989 1.2287918.8519793 1.9757432.8519793.8103089 0 1.4938926-.2891537 2.0507715-.8674699.556879-.5852008.8353143-1.2977582.8353143-2.1376936 0-.8502624-.2751008-1.5628198-.8253105-2.1376936-.5468751-.5783162-1.2237897-.8674699-2.030764-.8674699-.8036397 0-1.4822215.2891537-2.0357658.8674699-.5535444.5714314-.8303124 1.2771042-.8303124 2.1170396zm11.8021542 4.0068846v-7.9724612h1.6206096c.7769629 0 1.3905209.079173 1.8406925.2375215.4835177.1549061.9220116.4182425 1.3154949.7900172.7969705.750434 1.1954497 1.7366548 1.1954497 2.9586919 0 1.2254795-.415152 2.2168637-1.2454685 2.9741825-.4168256.3786593-.8536522.6419958-1.310493.7900172-.4268294.1480214-1.032051.2220309-1.8156831.2220309zm1.1654384-1.1308089h.5251976c.5235329 0 .9586922-.0567981 1.3054911-.1703959.3467989-.1204825.660247-.3115305.9403538-.5731497.5735519-.5404502.8603236-1.2444019.8603236-2.1118761 0-.8743589-.2834371-1.583474-.8503199-2.1273666-.5101945-.4853725-1.2621365-.7280551-2.2558486-.7280551h-.5251976zm9.3262227-2.8915663c0-1.1222087.3984793-2.0860545 1.1954497-2.8915662.7936359-.8055118 1.7473185-1.2082616 2.8610764-1.2082616 1.1004195 0 2.0440984.4061921 2.831065 1.2185886.7903013.8123965 1.185446 1.7882903 1.185446 2.9277108 0 1.1463052-.396812 2.1187568-1.1904479 2.9173839-.7969704.8020694-1.7589894 1.2030981-2.8860857 1.2030981-.9970467 0-1.8923746-.3562787-2.6860105-1.0688469-.8736664-.7882999-1.310493-1.8209918-1.310493-3.0981067zm1.1754422.0154906c0 .8812436.2867717 1.6058491.8603237 2.1738382.5702173.567989 1.2287918.8519793 1.9757432.8519793.8103089 0 1.4938926-.2891537 2.0507715-.8674699.556879-.5852008.8353143-1.2977582.8353143-2.1376936 0-.8502624-.2751007-1.5628198-.8253105-2.1376936-.5468751-.5783162-1.2237897-.8674699-2.030764-.8674699-.8036397 0-1.4822215.2891537-2.0357658.8674699-.5535444.5714314-.8303124 1.2771042-.8303124 2.1170396zm11.8021542 4.0068846v-8.5146299l5.6321188 6.0826162v-5.5404475h1.1654384v8.4578313l-5.6321188-6.0671256v5.5817555zm14.218063-6.8416523v6.8416523h-1.1654385v-6.8416523h-1.775668v-1.1308089h4.7117726v1.1308089zm7.4155039-1.1308089v7.9724612h-1.1654385v-7.9724612zm11.0018532.4285714v1.4251291c-.67359-.5817585-1.370512-.8726334-2.090787-.8726334-.793636 0-1.462214.2943172-2.005754.8829604-.546875.5852009-.820309 1.3012006-.820309 2.1480207 0 .836493.273434 1.5421658.820309 2.1170396.546875.5748737 1.21712.8623063 2.010756.8623063.410157 0 .758617-.0688461 1.045393-.2065404.160061-.0688472.325956-.1617895.497688-.2788296.171732-.1170402.352631-.2581748.542704-.4234079v1.4509466c-.666921.3889865-1.367177.5834768-2.10079.5834768-1.103755 0-2.045766-.3975864-2.826064-1.1927711-.776962-.8020694-1.165438-1.7693575-1.165438-2.9018933 0-1.0154956.325119-1.9208222.975367-2.7160069.800305-.9741873 1.835684-1.4612737 3.106168-1.4612737.693598 0 1.363844.1944903 2.010757.5834768zm9.276204.7590361-.945356.5783133c-.176734-.3166969-.345129-.5232353-.50519-.6196213-.16673-.1101555-.381809-.1652324-.645243-.1652324-.323456 0-.591888.0946634-.805303.2839931-.213414.1858873-.32012.4199642-.32012.7022375 0 .3889865.280102.7022364.840316.9397591l.77029.3253012c.626905.2616192 1.085407.5808931 1.375517.9578313.290111.3769382.435164.8390678.435164 1.3864028 0 .7332222-.236753 1.3390681-.710267 1.8175559-.476849.4819301-1.068732.7228916-1.775668.7228916-.670256 0-1.223792-.2048173-1.660625-.6144579-.430164-.4096406-.698596-.9862269-.805303-1.7297762l1.180444-.2685026c.053354.4681607.146721.7917375.280106.9707401.240091.3442358.590219.5163511 1.050395.5163511.363472 0 .665249-.1256442.90534-.3769363.240092-.2512921.360136-.5697055.360136-.9552496 0-.1549061-.020841-.2969012-.062524-.4259896-.041682-.1290885-.106706-.247848-.195073-.3562823s-.202576-.2099823-.342629-.3046472c-.140053-.0946648-.306781-.1850254-.500188-.2710843l-.745281-.3201377c-1.057069-.461276-1.585596-1.135968-1.585596-2.0240964 0-.5989703.221748-1.0998259.66525-1.5025817.443503-.4061983.995371-.6092944 1.655623-.6092944.890339 0 1.585594.4474999 2.085785 1.3425129z"/></g></svg>

<?xml version="1.0" encoding="UTF-8"?>
<svg width="120px" height="40px" viewBox="0 0 120 40" version="1.1" xmlns="http://www.w3.org/2000/svg" xmlns:xlink="http://www.w3.org/1999/xlink">
    <!-- Generator: Sketch 51.2 (57519) - http://www.bohemiancoding.com/sketch -->
    <title>logo</title>
    <desc>Created with Sketch.</desc>
    <defs></defs>
    <g id="Page-1" stroke="none" stroke-width="1" fill="none" fill-rule="evenodd">
        <g id="Concept-Two" transform="translate(-100.000000, -95.000000)" fill="#222D40">
            <g id="logo" transform="translate(100.000000, 95.000000)">
                <path d="M3.89169083,11.9959839 L13.9299148,1.74698795 L19.1244034,1.74698795 L7.46603348,13.3769363 L19.1912136,27.4360298 L13.9800224,27.4360298 L4.69341254,16.0057372 L3.89169083,16.8043603 L3.89169083,27.4360298 L0,27.4360298 L0,1.74698795 L3.89169083,1.74698795 L3.89169083,11.9959839 Z M37.3869561,21.1967871 L26.3465799,21.1967871 L23.4737438,27.4360298 L19.2814073,27.4360298 L32.0421446,0.133103844 L44.3519135,27.4360298 L40.0927669,27.4360298 L37.3869561,21.1967871 Z M35.8002152,17.5530694 L31.9753345,8.81812966 L27.9667259,17.5530694 L35.8002152,17.5530694 Z M48.1890428,17.0040161 L48.1890428,27.4360298 L44.2973519,27.4360298 L44.2973519,1.74698795 L48.7068214,1.74698795 C50.8670268,1.74698795 52.4982915,1.89672828 53.6006643,2.19621343 C54.7141723,2.49569857 55.6940446,3.06138425 56.5403106,3.89328744 C58.0212762,5.33525295 58.7617479,7.15432063 58.7617479,9.35054504 C58.7617479,11.702058 57.9711691,13.5654932 56.3899878,14.9409065 C54.8088065,16.3163197 52.6764708,17.0040161 49.9929166,17.0040161 L48.1890428,17.0040161 Z M48.1890428,13.4102123 L49.6421634,13.4102123 C53.2165239,13.4102123 55.0036773,12.0403656 55.0036773,9.3006311 C55.0036773,6.64963295 53.1608493,5.32415376 49.475138,5.32415376 L48.1890428,5.32415376 L48.1890428,13.4102123 Z M63.3838963,1.74698795 L63.3838963,23.7923121 L70.9668476,23.7923121 L70.9668476,27.4360298 L59.4922055,27.4360298 L59.4922055,1.74698795 L63.3838963,1.74698795 Z M89.3908581,21.1967871 L78.3504819,21.1967871 L75.4776458,27.4360298 L71.2853093,27.4360298 L84.0460466,0.133103844 L96.3558155,27.4360298 L92.0966689,27.4360298 L89.3908581,21.1967871 Z M87.8041172,17.5530694 L83.9792365,8.81812966 L79.9706279,17.5530694 L87.8041172,17.5530694 Z M96.3012539,27.4360298 L96.3012539,0 L115.108309,19.599541 L115.108309,1.74698795 L119,1.74698795 L119,29 L100.192945,9.45037292 L100.192945,27.4360298 L96.3012539,27.4360298 Z" id="KAPLAN-Copy"></path>
                <path d="M0,35.4922547 C0,34.370046 0.398479259,33.4062002 1.19544973,32.6006885 C1.9890856,31.7951767 2.94276818,31.3924269 4.05652608,31.3924269 C5.15694556,31.3924269 6.10062447,31.798619 6.88759113,32.6110155 C7.6778924,33.423412 8.0730371,34.3993058 8.0730371,35.5387263 C8.0730371,36.6850315 7.67622512,37.6574831 6.88258925,38.4561102 C6.08561878,39.2581796 5.12359981,39.6592083 3.9965035,39.6592083 C2.99945676,39.6592083 2.10412888,39.3029296 1.31049301,38.5903614 C0.436826636,37.8020615 0,36.7693696 0,35.4922547 Z M1.17544221,35.5077453 C1.17544221,36.3889889 1.46221389,37.1135944 2.03576586,37.6815835 C2.60598323,38.2495725 3.26455774,38.5335628 4.01150914,38.5335628 C4.82181803,38.5335628 5.5054017,38.2444091 6.06228065,37.6660929 C6.6191596,37.0808921 6.8975949,36.3683347 6.8975949,35.5283993 C6.8975949,34.6781369 6.62249415,33.9655795 6.07228441,33.3907057 C5.52540928,32.8123895 4.84849472,32.5232358 4.04152043,32.5232358 C3.23788075,32.5232358 2.55929892,32.8123895 2.00575457,33.3907057 C1.45221023,33.9621371 1.17544221,34.6678099 1.17544221,35.5077453 Z M15.5935805,36.1170396 L17.98448,39.5146299 L16.5589437,39.5146299 L14.3531138,36.2512909 L14.1430348,36.2512909 L14.1430348,39.5146299 L12.9775964,39.5146299 L12.9775964,31.5421687 L14.3431101,31.5421687 C15.363499,31.5421687 16.1004356,31.7401013 16.5539418,32.1359725 C17.0541325,32.5765943 17.3042241,33.1583441 17.3042241,33.8812392 C17.3042241,34.445786 17.1475,34.9311512 16.8340472,35.3373494 C16.5205943,35.7435476 16.1071096,36.0034418 15.5935805,36.1170396 Z M14.1430348,35.2030981 L14.513174,35.2030981 C15.6169281,35.2030981 16.1687969,34.7676464 16.1687969,33.8967298 C16.1687969,33.0808909 15.6319336,32.6729776 14.558191,32.6729776 L14.1430348,32.6729776 L14.1430348,35.2030981 Z M24.6246922,32.6729776 L24.6246922,39.5146299 L23.4592537,39.5146299 L23.4592537,32.6729776 L21.6835857,32.6729776 L21.6835857,31.5421687 L26.3953583,31.5421687 L26.3953583,32.6729776 L24.6246922,32.6729776 Z M32.0401961,34.6609294 L35.3714493,34.6609294 L35.3714493,31.5421687 L36.5368877,31.5421687 L36.5368877,39.5146299 L35.3714493,39.5146299 L35.3714493,35.7917384 L32.0401961,35.7917384 L32.0401961,39.5146299 L30.8747576,39.5146299 L30.8747576,31.5421687 L32.0401961,31.5421687 L32.0401961,34.6609294 Z M41.441447,35.4922547 C41.441447,34.370046 41.8399263,33.4062002 42.6368967,32.6006885 C43.4305326,31.7951767 44.3842152,31.3924269 45.4979731,31.3924269 C46.5983926,31.3924269 47.5420715,31.798619 48.3290381,32.6110155 C49.1193394,33.423412 49.5144841,34.3993058 49.5144841,35.5387263 C49.5144841,36.6850315 49.1176721,37.6574831 48.3240362,38.4561102 C47.5270658,39.2581796 46.5650468,39.6592083 45.4379505,39.6592083 C44.4409037,39.6592083 43.5455759,39.3029296 42.75194,38.5903614 C41.8782736,37.8020615 41.441447,36.7693696 41.441447,35.4922547 Z M42.6168892,35.5077453 C42.6168892,36.3889889 42.9036609,37.1135944 43.4772129,37.6815835 C44.0474302,38.2495725 44.7060047,38.5335628 45.4529561,38.5335628 C46.263265,38.5335628 46.9468487,38.2444091 47.5037276,37.6660929 C48.0606066,37.0808921 48.3390419,36.3683347 48.3390419,35.5283993 C48.3390419,34.6781369 48.0639411,33.9655795 47.5137314,33.3907057 C46.9668563,32.8123895 46.2899417,32.5232358 45.4829674,32.5232358 C44.6793277,32.5232358 44.0007459,32.8123895 43.4472016,33.3907057 C42.8936572,33.9621371 42.6168892,34.6678099 42.6168892,35.5077453 Z M54.4190434,39.5146299 L54.4190434,31.5421687 L56.039653,31.5421687 C56.8166159,31.5421687 57.4301739,31.6213417 57.8803455,31.7796902 C58.3638632,31.9345963 58.8023571,32.1979327 59.1958404,32.5697074 C59.9928109,33.3201414 60.3912901,34.3063622 60.3912901,35.5283993 C60.3912901,36.7538788 59.9761381,37.745263 59.1458216,38.5025818 C58.728996,38.8812411 58.2921694,39.1445776 57.8353286,39.292599 C57.4084992,39.4406204 56.8032776,39.5146299 56.0196455,39.5146299 L54.4190434,39.5146299 Z M55.5844818,38.383821 L56.1096794,38.383821 C56.6332123,38.383821 57.0683716,38.3270229 57.4151705,38.2134251 C57.7619694,38.0929426 58.0754175,37.9018946 58.3555243,37.6402754 C58.9290762,37.0998252 59.2158479,36.3958735 59.2158479,35.5283993 C59.2158479,34.6540404 58.9324108,33.9449253 58.365528,33.4010327 C57.8553335,32.9156602 57.1033915,32.6729776 56.1096794,32.6729776 L55.5844818,32.6729776 L55.5844818,38.383821 Z M64.9107045,35.4922547 C64.9107045,34.370046 65.3091838,33.4062002 66.1061542,32.6006885 C66.8997901,31.7951767 67.8534727,31.3924269 68.9672306,31.3924269 C70.0676501,31.3924269 71.011329,31.798619 71.7982956,32.6110155 C72.5885969,33.423412 72.9837416,34.3993058 72.9837416,35.5387263 C72.9837416,36.6850315 72.5869296,37.6574831 71.7932937,38.4561102 C70.9963233,39.2581796 70.0343043,39.6592083 68.907208,39.6592083 C67.9101613,39.6592083 67.0148334,39.3029296 66.2211975,38.5903614 C65.3475311,37.8020615 64.9107045,36.7693696 64.9107045,35.4922547 Z M66.0861467,35.5077453 C66.0861467,36.3889889 66.3729184,37.1135944 66.9464704,37.6815835 C67.5166877,38.2495725 68.1752622,38.5335628 68.9222136,38.5335628 C69.7325225,38.5335628 70.4161062,38.2444091 70.9729851,37.6660929 C71.5298641,37.0808921 71.8082994,36.3683347 71.8082994,35.5283993 C71.8082994,34.6781369 71.5331987,33.9655795 70.9829889,33.3907057 C70.4361138,32.8123895 69.7591992,32.5232358 68.9522249,32.5232358 C68.1485852,32.5232358 67.4700034,32.8123895 66.9164591,33.3907057 C66.3629147,33.9621371 66.0861467,34.6678099 66.0861467,35.5077453 Z M77.8883009,39.5146299 L77.8883009,31 L83.5204197,37.0826162 L83.5204197,31.5421687 L84.6858581,31.5421687 L84.6858581,40 L79.0537393,33.9328744 L79.0537393,39.5146299 L77.8883009,39.5146299 Z M92.1063639,32.6729776 L92.1063639,39.5146299 L90.9409254,39.5146299 L90.9409254,32.6729776 L89.1652574,32.6729776 L89.1652574,31.5421687 L93.87703,31.5421687 L93.87703,32.6729776 L92.1063639,32.6729776 Z M99.5218678,31.5421687 L99.5218678,39.5146299 L98.3564293,39.5146299 L98.3564293,31.5421687 L99.5218678,31.5421687 Z M110.523721,31.9707401 L110.523721,33.3958692 C109.850131,32.8141107 109.153209,32.5232358 108.432934,32.5232358 C107.639298,32.5232358 106.97072,32.817553 106.42718,33.4061962 C105.880305,33.9913971 105.606871,34.7073968 105.606871,35.5542169 C105.606871,36.3907099 105.880305,37.0963827 106.42718,37.6712565 C106.974055,38.2461302 107.6443,38.5335628 108.437936,38.5335628 C108.848093,38.5335628 109.196553,38.4647167 109.483329,38.3270224 C109.64339,38.2581752 109.809285,38.1652329 109.981017,38.0481928 C110.152749,37.9311526 110.333648,37.790018 110.523721,37.6247849 L110.523721,39.0757315 C109.8568,39.464718 109.156544,39.6592083 108.422931,39.6592083 C107.319176,39.6592083 106.377165,39.2616219 105.596867,38.4664372 C104.819905,37.6643678 104.431429,36.6970797 104.431429,35.5645439 C104.431429,34.5490483 104.756548,33.6437217 105.406796,32.848537 C106.207101,31.8743497 107.24248,31.3872633 108.512964,31.3872633 C109.206562,31.3872633 109.876808,31.5817536 110.523721,31.9707401 Z M119.799925,32.7297762 L118.854569,33.3080895 C118.677835,32.9913926 118.50944,32.7848542 118.349379,32.6884682 C118.182649,32.5783127 117.96757,32.5232358 117.704136,32.5232358 C117.38068,32.5232358 117.112248,32.6178992 116.898833,32.8072289 C116.685419,32.9931162 116.578713,33.2271931 116.578713,33.5094664 C116.578713,33.8984529 116.858815,34.2117028 117.419029,34.4492255 L118.189319,34.7745267 C118.816224,35.0361459 119.274726,35.3554198 119.564836,35.732358 C119.854947,36.1092962 120,36.5714258 120,37.1187608 C120,37.851983 119.763247,38.4578289 119.289733,38.9363167 C118.812884,39.4182468 118.221001,39.6592083 117.514065,39.6592083 C116.843809,39.6592083 116.290273,39.454391 115.85344,39.0447504 C115.423276,38.6351098 115.154844,38.0585235 115.048137,37.3149742 L116.228581,37.0464716 C116.281935,37.5146323 116.375302,37.8382091 116.508687,38.0172117 C116.748778,38.3614475 117.098906,38.5335628 117.559082,38.5335628 C117.922554,38.5335628 118.224331,38.4079186 118.464422,38.1566265 C118.704514,37.9053344 118.824558,37.586921 118.824558,37.2013769 C118.824558,37.0464708 118.803717,36.9044757 118.762034,36.7753873 C118.720352,36.6462988 118.655328,36.5275393 118.566961,36.419105 C118.478594,36.3106707 118.364385,36.2091227 118.224332,36.1144578 C118.084279,36.019793 117.917551,35.9294324 117.724144,35.8433735 L116.978863,35.5232358 C115.921794,35.0619598 115.393267,34.3872678 115.393267,33.4991394 C115.393267,32.9001691 115.615015,32.3993135 116.058517,31.9965577 C116.50202,31.5903594 117.053888,31.3872633 117.71414,31.3872633 C118.604479,31.3872633 119.299734,31.8347632 119.799925,32.7297762 Z" id="ORTHODONTICS-Copy"></path>
            </g>
        </g>
    </g>
</svg>
